X:1
T:Aalborg, 76.76 D
T:Aalborg, 76.76 D
T:Edward Little White (1809–1851)
T:Public Domain Courtesy of the Cyber Hymnal™
C:Edward Little White (1809–1851)
Z:Public Domain
Z:Courtesy of the Cyber Hymnal™
%%score ( 1 2 ) ( 3 4 )
L:1/8
Q:1/4=110
M:4/4
K:D
V:1 treble 
V:2 treble 
V:3 bass 
V:4 bass 
V:1
 D2 | [DF]2 [CE]2 [DF]2 [EG]2 | [FA]4 [FA]2 [FA]2 | [EG]3 [DF] [EG]2 [CA]2 | [DF]6 D2 | %5
 [DF]2 [CE]2 [DF]2 [EG]2 | [FA]4 [FA]2 [FA]2 | [EG]3 [DF] [EG]2 [CA]2 | [DF]6 D2 | %9
 [B,D]2 [DB]2 [DB]2 [DB]2 | [GB]4 [GB]2 [GB]2 | [GB]2 [Bd]2 [Ac]2 [GB]2 | [FA]6 [FA]2 | %13
 [Fd]3 [DF] [DF]2 [DF]2 | [FA]4 [FA]2 [FA]2 | [EG]3 [DF] [EG]2 [CE]2 | D6 |] %17
V:2
 D2 | x8 | x8 | x8 | x6 D2 | x8 | x8 | x8 | x6 D2 | x8 | x8 | x8 | x8 | x8 | x8 | x8 | D6 |] %17
V:3
 [D,F,]2 | [D,A,]2 [A,,A,]2 [D,A,]2 [D,A,]2 | [D,D]4 [D,D]2 [D,D]2 | A,3 A, [A,,A,]2 [A,,A,]2 | %4
 [D,A,]6 [D,F,]2 | [D,A,]2 [A,,A,]2 [D,A,]2 [D,A,]2 | [D,D]4 [D,D]2 [D,D]2 | %7
 A,3 A, [A,,A,]2 [A,,A,]2 | [D,A,]6 [D,F,]2 | [G,,G,]2 [G,,G,]2 G,2 [G,B,]2 | %10
 [G,D]4 [G,D]2 [G,D]2 | [G,D]2 [G,B,]2 [G,C]2 [G,D]2 | [D,D]6 [D,D]2 | %13
 [D,A,]3 [D,A,] [D,A,]2 [D,A,]2 | [D,D]4 [D,D]2 [D,D]2 | A,3 A, [A,,A,]2 [A,,G,]2 | [D,F,]6 |] %17
V:4
 x2 | x8 | x8 | A,3 A, x4 | x8 | x8 | x8 | A,3 A, x4 | x8 | x4 G,2 x2 | x8 | x8 | x8 | x8 | x8 | %15
 A,3 A, x4 | x6 |] %17

